resources/haticons/SVG/add_to_home_screen.svg

<!-- Generated by IcoMoon.io -->
<svg version="1.1" xmlns="http://www.w3.org/2000/svg" width="24" height="24" viewBox="0 0 24 24">
<title>add_to_home_screen</title>
<path d="M9.984 15v-3.609l-5.578 5.625-1.406-1.406 5.578-5.625h-3.563v-1.969h6.984v6.984h-2.016zM18 1.031q0.797 0 1.406 0.586t0.609 1.383v18q0 0.797-0.609 1.406t-1.406 0.609h-9.984q-0.797 0-1.406-0.609t-0.609-1.406v-3h2.016v0.984h9.984v-13.969h-9.984v0.984h-2.016v-3q0-0.797 0.609-1.406t1.406-0.609z"></path>
</svg>

<svg xmlns="http://www.w3.org/2000/svg" width="24" height="24"><path d="M9.984 15v-3.609l-5.578 5.625L3 15.61l5.578-5.625H5.015V8.016h6.984V15H9.983zM18 1.031q.797 0 1.406.586T20.015 3v18q0 .797-.609 1.406T18 23.015H8.016q-.797 0-1.406-.609T6.001 21v-3h2.016v.984h9.984V5.015H8.017v.984H6.001v-3q0-.797.609-1.406T8.016.984z"/></svg>
